src/Components/ScrivitoExtensions/DimensionsEditor/object-fit-cover.svg

<svg xmlns="http://www.w3.org/2000/svg" fill="none" viewBox="0 0 34 24"><g opacity=".5"><mask id="a" width="30" height="20" x="1" y="2" maskUnits="userSpaceOnUse" style="mask-type:alpha"><rect width="30" height="20" x="1" y="2" fill="#D9D9D9" rx="2"/></mask><g mask="url(#a)"><path fill="#AAA" d="M31 1H3v28h28z"/><path fill="#fff" fill-rule="evenodd" d="M3 1v28h5.6V1zm11.2 0v28h5.6V1zm11.2 0v28H31V1zM3 1h28v5.6H3zm0 11.2h28v5.6H3zm0 11.2h28V29H3z" clip-rule="evenodd"/></g></g><rect width="30" height="20" x="2" y="2" stroke="#BBB" stroke-width="2" rx="2"/></svg>

<svg viewBox="0 0 34 24" fill="none" xmlns="http://www.w3.org/2000/svg">
<g id="object-fit-cover">
<g id="Mask group">
<g id="Mask group_2" opacity="0.5">
<mask id="mask0_62_80" style="mask-type:alpha" maskUnits="userSpaceOnUse" x="1" y="2" width="30" height="20">
<rect id="square" x="1" y="2" width="30" height="20" rx="2" fill="#D9D9D9"/>
</mask>
<g mask="url(#mask0_62_80)">
<g id="Vector">
<path d="M31 1H3V29H31V1Z" fill="#AAAAAA"/>
<path fill-rule="evenodd" clip-rule="evenodd" d="M3 1V29H8.6V1H3ZM14.2 1V29H19.8V1H14.2ZM25.4 1V29H31V1H25.4ZM3 1H31V6.6H3V1ZM3 12.2H31V17.8H3V12.2ZM3 23.4H31V29H3V23.4Z" fill="white"/>
</g>
</g>
</g>
</g>
<rect id="square_2" x="2" y="2" width="30" height="20" rx="2" stroke="#BBBBBB" stroke-width="2"/>
</g>
</svg>
